X: 354
T: Chuancaolin diao
L: 1/8
M: 2/4
K: C
d> d e c [I:setbarnb 1]| 
d> e d c | 
A d c d | 
F GA2 | 
d> d e c | 
d> e d c | 
A d c d | 
F GA2 | 
d cd2 | 
d> e d c | 
d2G3/ A/ | 
c2A G | 
F A G F/ E/ | 
D4 |]

@@@ Tune index: 9228
